X: 1
T: Munster Buttermilk
R: jig
S: Fiddle Hell Online 2022-3-26 handout for Fiddle Hell jam session
B: the Portland Collection 2 p.142
Z: 2022 John Chambers <jc:trillian.mit.edu>
M: 6/8
L: 1/8
K: G
|:\
"G"g3 age | d2B BAB | d2B BAB | "C"dBA "D"GBd ||\
"G"gab age | d2B BAB | "C"dBA GAB | "D"A3 "G"G3 :|
|:\
"G"d2e g2a | b3 bag | "Am"a3 age | "C"g3 "D"age ||\
"G"dBd g2a | b2b bag | "C"age deg | "D"a3 "G"g2e :|
